X:17426
T:Three Scones of Boxty, The
R:reel
S:Paddy O'Neill
H:See also #182
Z:id:hn-reel-748
M:C|
K:Amix
gfed cBAG|{c}BAGE ~A2E2|{a}gfed cBAG|{c}BAGE ~F2D2:|
|:cded cA~A2|{c}BAGB ~A3B|1 cd{a}ed cA~A2|{c}BAGE ~F2D2:|2 cdef ~g3e|cAGE ~F2D2||
